X: 1
T:Lisdoonvarna
M:2/4
L:1/16
S:Irish Traditional    Arranged by John Layton 14/2/01
R:Polka
O:Ireland
K:D
A2|d2A2 F2A2|d2d2 d2f2|e2d2 c2d2|e2f2 g2fg|a2f2 g2e2|
d2B2 A2F2|G2B2 ABAG|F2D2 D2::d2|f3f f2f2|z2 g2 g4|f3f f2a2|g2f2 e2fg|
a2f2 g2e2|d2B2 A2F2|G2B2 ABAG|F2D2 D2:|
